X: 7
T: Tralee Gaol
R: polka
M: 2/4
L: 1/8
K: Edor
|: FA |BE- EF/A/ | BE FA | BE G/F/E | DD/E/ FA |
BE FA | BE FE | DD/E/ FA | FE E :|
|: A |B>^A B^c/d/ | eB ^c/B/A/F/ | A>^G AB/^c/ | dB ^c/B/A |
B2 B^c/d/ | eB BA | Be B/^c/B/A/ | FE E2 :|


Tune 1113	Setting 14368

